X:8262
T:Adew Dundie
C:anon.
O:Scotland
S:Skene MS, early 17th century Scotland
S:Dauney, Ancient Scotish Melodies (1843)
Z:Transcribed by Jack Campin
F:http://abc.musicaviva.com/tunes/scotland/adew-dundie/adew-dundie-mdr1.abc
%Posted November 12th 2001 at abcusers by Jack Campin as yet another
%example of rather unconventional ABC notation.
M:3/4
L:1/4
Q:3/4=56
K:D Dorian
[V:1] x  x  x |x  x  x |x  x  x |x  x  x |a2    c'|a2    c'|a  x  x |x  x  x:|
[V:2] x  d  d |d2    d |x  x  d |e  g2   |x  x  x |x  x  x |x  g  e |d2    x:|
[V:3] A  x  x |x  x  x |c2    x |A2    x |A2    x |A2    x |x  x  x |x  x  x:|
[V:4] x  x  x |D2    x |x  x  x |x  x  x |x  x  x |x  x  x |x  x  x |D2    D:|
[V:5] A, x  x |x  x  x |C2    x |x  x  x |x  x  x |x  x  x |x  x  x |x  x  x:|
%
[V:1] a  c' c'|c'2   c'|x  x  x |x  x  x |a  d' d'|d'2   d'|d' c' b |a3      |
[V:2] x  x  x |x  x  x |x  x  d |e  g2   |x  x  x |x  x  x |x  x  x |x  x  x |
[V:3] x  x  x |c2    x |c2    x |x  x  x |x  x  x |x  x  x |x  x  x |x  x  x |
[V:4] x  x  x |x  x  x |x  x  x |x  x  x |x  x  x |x  x  x |x  x  x |A3      |
[V:5] x  x  x |x  x  x |C2    x |x  x  x |x  x  x |x  x  x |x  x  x |x  x  x |
%
[V:1] a  c' c'|c'2   c'|x  x  x |x  x  x |a2    c'|a2    c'|a  x  x |x  x  x|]
[V:2] x  x  x |x  x  x |x  x  d |e  g2   |x  x  x |x  x  x |x  g  e |d3     |]
[V:3] x  x  x |c2    x |c2    x |x  x  x |A2    x |A2    x |A2    x |x  x  x|]
[V:4] x  x  x |x  x  x |x  x  x |x  x  x |x  x  x |x  x  x |x  x  x |D3     |]
[V:5] x  x  x |x  x  x |C2    x |x  x  x |x  x  x |x  x  x |x  x  x |x  x  x|]
W:
W:
W:  From Musica Viva - http://www.musicaviva.com
W:  the Internet center for free sheet music downloads.

